neru-light-classic/22x22/actions/investment-delete.svg

<svg xmlns="http://www.w3.org/2000/svg" width="22" height="22" version="1.1">
 <defs>
  <style id="current-color-scheme" type="text/css">
   .ColorScheme-Text { color:#1e333d; } .ColorScheme-Highlight { color:#3fb7ff; }
  </style>
 </defs>
 <path style="fill:currentColor;opacity:0.3" class="ColorScheme-Text" d="M 11 3 A 8 8 0 0 0 3 11 A 8 8 0 0 0 3.0703125 11.976562 C 3.157948 11.56928 3.4496006 11.171221 3.828125 10.953125 L 6.9863281 9.1308594 C 7.7270832 8.7035678 8.7024067 8.964994 9.1308594 9.7050781 L 9.046875 9.5585938 L 11.978516 7.8652344 C 12.604846 7.5033498 13.33837 7.7186494 13.828125 8.2148438 L 13.980469 8.1269531 L 13.525391 7.3320312 C 12.964405 6.3535709 13.711834 5.0348231 14.847656 5.0332031 A 1.0001 1.0001 0 0 0 14.849609 5.0332031 L 16.318359 5.0332031 A 8 8 0 0 0 11 3 z M 18.984375 10.5625 L 18.503906 11.404297 A 1.0001 1.0001 0 0 0 18.503906 11.40625 C 18.341005 11.690499 18.09171 11.881305 17.8125 12 L 18 12 A 1.0001 1.0001 0 0 1 18.855469 12.484375 A 8 8 0 0 0 19 11 A 8 8 0 0 0 18.984375 10.5625 z M 15.539062 10.855469 L 14.166016 11.650391 C 13.539496 12.013201 12.804601 11.797643 12.314453 11.300781 L 9.2578125 13.066406 C 8.5737603 13.461642 7.7288502 13.215871 7.2597656 12.601562 L 5.4003906 13.675781 A 1.0001 1.0001 0 0 0 5.3984375 13.675781 C 5.0167939 13.895679 4.5208416 13.950451 4.1230469 13.818359 C 3.7490408 13.694167 3.4787615 13.44234 3.2949219 13.150391 A 8 8 0 0 0 11 19 A 8 8 0 0 0 14 18.410156 L 14 16 A 1.0001 1.0001 0 0 1 13 15 L 13 14 A 1.0001 1.0001 0 0 1 14 13 L 15 13 A 1.0001 1.0001 0 0 1 16 12 L 16.544922 12 C 16.265702 11.880823 16.016275 11.688512 15.853516 11.404297 L 15.853516 11.402344 L 15.851562 11.402344 L 15.539062 10.855469 z"/>
 <path style="fill:currentColor" class="ColorScheme-Text" d="m 14.849403,6.0324475 a 0.52837956,0.53379665 0 0 0 -0.456474,0.8013394 l 0.949777,1.6618302 -1.754464,1.0133925 -0.328125,-0.56808 A 0.57148571,0.57148571 0 0 0 12.478867,8.7311079 L 8.6808754,10.924187 8.2656972,10.205437 A 0.57148571,0.57148571 0 0 0 7.4855629,9.9967314 L 4.328197,11.819276 a 0.57152042,0.57152042 0 1 0 0.5714286,0.989955 l 2.6629464,-1.53683 0.4140623,0.717634 a 0.57148571,0.57148571 0 0 0 0.7812503,0.209822 l 3.7979914,-2.193081 0.328125,0.569197 a 0.57148571,0.57148571 0 0 0 0.78125,0.208705 l 2.24442,-1.2968735 0.811384,1.4196415 a 0.52837956,0.53379665 0 0 0 0.915178,0.0011 L 19.965474,6.8338138 A 0.52837956,0.53379665 0 0 0 19.949849,6.2757511 0.52837956,0.53379665 0 0 0 19.507885,6.0324475 Z"/>
 <path style="fill:currentColor" class="ColorScheme-Text" d="m 16,13 v 1 h -2 v 1 h 6 v -1 h -2 v -1 z m -1,3 v 4 h 4 v -4 z"/>
</svg>

<svg xmlns="http://www.w3.org/2000/svg" width="22" height="22"><defs><style id="current-color-scheme" type="text/css">.ColorScheme-Text{color:#1e333d}</style></defs><path class="ColorScheme-Text" d="M11 3a8 8 0 0 0-8 8 8 8 0 0 0 .07.977c.088-.408.38-.806.758-1.024l3.158-1.822a1.586 1.586 0 0 1 2.145.574l-.084-.146 2.932-1.694c.626-.362 1.36-.146 1.85.35l.151-.088-.455-.795c-.56-.978.187-2.297 1.323-2.299a1 1 0 0 0 .002 0h1.468A8 8 0 0 0 11 3zm7.984 7.563l-.48.841a1 1 0 0 0 0 .002 1.412 1.412 0 0 1-.692.594H18a1 1 0 0 1 .855.484A8 8 0 0 0 19 11a8 8 0 0 0-.016-.438zm-3.445.292l-1.373.795c-.627.363-1.361.148-1.852-.35l-3.056 1.766c-.684.396-1.53.15-1.998-.464L5.4 13.676a1 1 0 0 0-.002 0c-.381.22-.877.274-1.275.142a1.555 1.555 0 0 1-.828-.668A8 8 0 0 0 11 19a8 8 0 0 0 3-.59V16a1 1 0 0 1-1-1v-1a1 1 0 0 1 1-1h1a1 1 0 0 1 1-1h.545a1.418 1.418 0 0 1-.691-.596v-.002h-.002l-.313-.547z" fill="currentColor" opacity=".3"/><path class="ColorScheme-Text" d="M14.85 6.032a.528.534 0 0 0-.457.802l.95 1.662-1.755 1.013-.328-.568a.571.571 0 0 0-.781-.21L8.68 10.924l-.415-.719a.571.571 0 0 0-.78-.208l-3.158 1.822a.572.572 0 1 0 .572.99l2.663-1.537.414.718a.571.571 0 0 0 .78.21l3.799-2.193.328.569a.571.571 0 0 0 .781.209l2.245-1.297.811 1.42a.528.534 0 0 0 .915 0l2.33-4.074a.528.534 0 0 0-.016-.558.528.534 0 0 0-.442-.244zM16 13v1h-2v1h6v-1h-2v-1zm-1 3v4h4v-4z" fill="currentColor"/></svg>
